SVG_Azure_Grouped/Networking/Load Balancer Inbound NAT Rule.svg

<?xml version="1.0" encoding="UTF-8" standalone="no"?>
<!-- Generated by Microsoft Visio, SVG Export Load Balancer Inbound NAT Rule.svg Page-1 -->

<svg
   xmlns:dc="http://purl.org/dc/elements/1.1/"
   xmlns:cc="http://creativecommons.org/ns#"
   xmlns:rdf="http://www.w3.org/1999/02/22-rdf-syntax-ns#"
   xmlns:svg="http://www.w3.org/2000/svg"
   xmlns="http://www.w3.org/2000/svg"
   xmlns:sodipodi="http://sodipodi.sourceforge.net/DTD/sodipodi-0.dtd"
   xmlns:inkscape="http://www.inkscape.org/namespaces/inkscape"
   width="0.78746265in"
   height="0.78744179in"
   viewBox="0 0 56.697379 56.696097"
   xml:space="preserve"
   class="st6"
   version="1.1"
   id="svg49"
   sodipodi:docname="Load Balancer Inbound NAT Rule.svg"
   style="font-size:12px;overflow:visible;color-interpolation-filters:sRGB;fill:none;fill-rule:evenodd;stroke-linecap:square;stroke-miterlimit:3"
   inkscape:version="0.92.5 (2060ec1f9f, 2020-04-08)"><metadata
   id="metadata55"><rdf:RDF><cc:Work
       rdf:about=""><dc:format>image/svg+xml</dc:format><dc:type
         rdf:resource="http://purl.org/dc/dcmitype/StillImage" /></cc:Work></rdf:RDF></metadata><defs
   id="defs53" /><sodipodi:namedview
   pagecolor="#ffffff"
   bordercolor="#666666"
   borderopacity="1"
   objecttolerance="10"
   gridtolerance="10"
   guidetolerance="10"
   inkscape:pageopacity="0"
   inkscape:pageshadow="2"
   inkscape:window-width="640"
   inkscape:window-height="480"
   id="namedview51"
   showgrid="false"
   inkscape:zoom="1.7193066"
   inkscape:cx="37.795072"
   inkscape:cy="23.279613"
   inkscape:window-x="0"
   inkscape:window-y="0"
   inkscape:window-maximized="0"
   inkscape:current-layer="svg49" />
	<style
   type="text/css"
   id="style2">
	<![CDATA[
		.st1 {fill:#a0a1a2;stroke:none;stroke-linecap:butt;stroke-width:12.24}
		.st2 {fill:#0072c6;stroke:none;stroke-linecap:butt;stroke-width:12.24}
		.st3 {fill:#68217a;stroke:none;stroke-linecap:butt;stroke-width:12.24}
		.st4 {fill:#ffffff;stroke:none;stroke-linecap:butt;stroke-width:12.24}
		.st5 {fill:#ffffff;fill-opacity:0.2;stroke:none;stroke-linecap:butt;stroke-width:12.24}
		.st6 {fill:none;fill-rule:evenodd;font-size:12px;overflow:visible;stroke-linecap:square;stroke-miterlimit:3}
	]]>
	</style>

	<g
   id="g47"
   transform="translate(-12.24016,-12.2382)">
		<title
   id="title4">Page-1</title>
		<g
   id="group17869-1"
   transform="translate(12.24,-34.0157)">
			<title
   id="title6">Load Balancer Inbound NAT Rule.17869</title>
			<g
   id="group17870-2">
				<title
   id="title8">Sheet.17870</title>
				<g
   id="shape17871-3">
					<title
   id="title10">Sheet.17871</title>
					<path
   d="M 54.43,46.26 H 2.27 C 1.02,46.26 0,47.28 0,48.52 v 52.16 c 0,1.25 1.02,2.27 2.27,2.27 h 52.16 c 1.24,0 2.26,-1.02 2.26,-2.27 V 48.52 c 0,-1.24 -1.02,-2.26 -2.26,-2.26 z"
   class="st1"
   id="path12"
   inkscape:connector-curvature="0"
   style="fill:#a0a1a2;stroke:none;stroke-width:12.23999977;stroke-linecap:butt" />
				</g>
				<g
   id="shape17872-5"
   transform="translate(17.348,-3.40157)">
					<title
   id="title15">Sheet.17872</title>
					<path
   d="m 11,74.49 c 3.74,0 7.37,1.47 10.09,4.19 5.56,5.56 5.56,14.52 0,20.07 -2.72,2.72 -6.24,4.2 -10.09,4.2 -3.74,0 -7.37,-1.48 -10.09,-4.2 -0.91,-0.9 -0.91,-2.38 0,-3.4 0.9,-0.91 2.38,-0.91 3.4,0 1.81,1.82 4.19,2.72 6.69,2.72 2.49,0 4.87,-1.02 6.69,-2.72 3.74,-3.74 3.74,-9.75 0,-13.38 -1.82,-1.81 -4.2,-2.72 -6.69,-2.72 -2.5,0 -4.88,1.02 -6.69,2.72 -0.91,0.91 -2.38,0.91 -3.4,0 C 0,81.07 0,79.59 0.91,78.57 3.63,75.96 7.26,74.49 11,74.49 Z"
   class="st2"
   id="path17"
   inkscape:connector-curvature="0"
   style="fill:#0072c6;stroke:none;stroke-width:12.23999977;stroke-linecap:butt" />
				</g>
				<g
   id="shape17873-7"
   transform="translate(23.1307,-12.4724)">
					<title
   id="title20">Sheet.17873</title>
					<circle
   cx="5.1023598"
   cy="97.846298"
   class="st3"
   id="ellipse22"
   r="5.1023598"
   style="fill:#68217a;stroke:none;stroke-width:12.23999977;stroke-linecap:butt" />
				</g>
				<g
   id="shape17874-9"
   transform="translate(18.822,-34.6961)">
					<title
   id="title25">Sheet.17874</title>
					<path
   d="m 11,96.37 7.82,-7.48 v 4.08 L 9.41,102.95 0,92.97 V 89 l 7.71,7.37 V 80.95 H 11 Z"
   class="st4"
   id="path27"
   inkscape:connector-curvature="0"
   style="fill:#ffffff;stroke:none;stroke-width:12.23999977;stroke-linecap:butt" />
				</g>
				<g
   id="shape17875-11"
   transform="translate(0,-15.4205)">
					<title
   id="title30">Sheet.17875</title>
					<path
   d="M 26.65,98.19 H 0 v 4.76 h 26.65 c 1.36,0 2.38,-1.02 2.38,-2.38 0,-1.36 -1.02,-2.38 -2.38,-2.38 z"
   class="st3"
   id="path32"
   inkscape:connector-curvature="0"
   style="fill:#68217a;stroke:none;stroke-width:12.23999977;stroke-linecap:butt" />
				</g>
				<g
   id="shape17876-13"
   transform="translate(38.0976,-15.4205)">
					<title
   id="title35">Sheet.17876</title>
					<path
   d="M 18.6,98.19 H 2.38 c -1.36,0 -2.38,1.02 -2.38,2.38 0,1.36 1.02,2.38 2.38,2.38 H 18.6 Z"
   class="st2"
   id="path37"
   inkscape:connector-curvature="0"
   style="fill:#0072c6;stroke:none;stroke-width:12.23999977;stroke-linecap:butt" />
				</g>
				<g
   id="shape17877-15">
					<title
   id="title40">Sheet.17877</title>
					<path
   d="M 2.27,46.26 C 1.02,46.26 0,47.28 0,48.52 v 52.16 c 0,1.25 1.02,2.27 2.27,2.27 H 4.76 L 49.44,46.26 Z"
   class="st5"
   id="path42"
   inkscape:connector-curvature="0"
   style="fill:#ffffff;fill-opacity:0.2;stroke:none;stroke-width:12.23999977;stroke-linecap:butt" />
				</g>
			</g>
		</g>
	</g>
</svg>

<?xml version="1.0" encoding="UTF-8" standalone="no"?>
<!DOCTYPE svg PUBLIC "-//W3C//DTD SVG 1.1//EN" "http://www.w3.org/Graphics/SVG/1.1/DTD/svg11.dtd">
<!-- Generated by Microsoft Visio, SVG Export Load Balancer Inbound NAT Rule.svg Page-1 -->
<svg xmlns="http://www.w3.org/2000/svg" xmlns:xlink="http://www.w3.org/1999/xlink" xmlns:ev="http://www.w3.org/2001/xml-events"
		width="1.1274in" height="1.42984in" viewBox="0 0 81.1729 102.949" xml:space="preserve" color-interpolation-filters="sRGB"
		class="st6">
	<style type="text/css">
	<![CDATA[
		.st1 {fill:#a0a1a2;stroke:none;stroke-linecap:butt;stroke-width:12.24}
		.st2 {fill:#0072c6;stroke:none;stroke-linecap:butt;stroke-width:12.24}
		.st3 {fill:#68217a;stroke:none;stroke-linecap:butt;stroke-width:12.24}
		.st4 {fill:#ffffff;stroke:none;stroke-linecap:butt;stroke-width:12.24}
		.st5 {fill:#ffffff;fill-opacity:0.2;stroke:none;stroke-linecap:butt;stroke-width:12.24}
		.st6 {fill:none;fill-rule:evenodd;font-size:12px;overflow:visible;stroke-linecap:square;stroke-miterlimit:3}
	]]>
	</style>

	<g>
		<title>Page-1</title>
		<g id="group17464-1" transform="translate(12.24,-34.0157)">
			<title>Load Balancer Inbound NAT Rule.17464</title>
			<g id="group17465-2">
				<title>Sheet.17465</title>
				<g id="shape17466-3">
					<title>Sheet.17466</title>
					<path d="M54.43 46.26 L2.27 46.26 C1.02 46.26 0 47.28 0 48.52 L0 100.68 C0 101.93 1.02 102.95 2.27 102.95 L54.43
								 102.95 C55.67 102.95 56.69 101.93 56.69 100.68 L56.69 48.52 C56.69 47.28 55.67 46.26 54.43 46.26
								 Z" class="st1"/>
				</g>
				<g id="shape17467-5" transform="translate(17.348,-3.40157)">
					<title>Sheet.17467</title>
					<path d="M11 74.49 C14.74 74.49 18.37 75.96 21.09 78.68 C26.65 84.24 26.65 93.2 21.09 98.75 C18.37 101.47 14.85
								 102.95 11 102.95 C7.26 102.95 3.63 101.47 0.91 98.75 C0 97.85 0 96.37 0.91 95.35 C1.81 94.44 3.29
								 94.44 4.31 95.35 C6.12 97.17 8.5 98.07 11 98.07 C13.49 98.07 15.87 97.05 17.69 95.35 C21.43 91.61
								 21.43 85.6 17.69 81.97 C15.87 80.16 13.49 79.25 11 79.25 C8.5 79.25 6.12 80.27 4.31 81.97 C3.4 82.88
								 1.93 82.88 0.91 81.97 C0 81.07 0 79.59 0.91 78.57 C3.63 75.96 7.26 74.49 11 74.49 Z" class="st2"/>
				</g>
				<g id="shape17468-7" transform="translate(23.1307,-12.4724)">
					<title>Sheet.17468</title>
					<ellipse cx="5.10236" cy="97.8463" rx="5.10236" ry="5.10236" class="st3"/>
				</g>
				<g id="shape17469-9" transform="translate(18.822,-34.6961)">
					<title>Sheet.17469</title>
					<path d="M11 96.37 L18.82 88.89 L18.82 92.97 L9.41 102.95 L0 92.97 L0 89 L7.71 96.37 L7.71 80.95 L11 80.95 L11
								 96.37 Z" class="st4"/>
				</g>
				<g id="shape17470-11" transform="translate(0,-15.4205)">
					<title>Sheet.17470</title>
					<path d="M26.65 98.19 L0 98.19 L0 102.95 L26.65 102.95 C28.01 102.95 29.03 101.93 29.03 100.57 C29.03 99.21 28.01
								 98.19 26.65 98.19 Z" class="st3"/>
				</g>
				<g id="shape17471-13" transform="translate(38.0976,-15.4205)">
					<title>Sheet.17471</title>
					<path d="M18.6 98.19 L2.38 98.19 C1.02 98.19 0 99.21 0 100.57 C0 101.93 1.02 102.95 2.38 102.95 L18.6 102.95
								 L18.6 98.19 Z" class="st2"/>
				</g>
				<g id="shape17472-15">
					<title>Sheet.17472</title>
					<path d="M2.27 46.26 C1.02 46.26 0 47.28 0 48.52 L0 100.68 C0 101.93 1.02 102.95 2.27 102.95 L4.76 102.95 L49.44
								 46.26 L2.27 46.26 Z" class="st5"/>
				</g>
			</g>
		</g>
	</g>
</svg>
